icons/Chevron-Right(RightAligned).svg

<svg width="24" height="24" viewBox="0 0 24 24" fill="none" xmlns="http://www.w3.org/2000/svg">
<path fill-rule="evenodd" clip-rule="evenodd" d="M11.157 5.066L18.08 11.999L11.157 18.932C11.1083 18.9787 11.0695 19.0347 11.0431 19.0968C11.0166 19.1588 11.0029 19.2255 11.0029 19.293C11.0029 19.3605 11.0166 19.4272 11.0431 19.4892C11.0695 19.5513 11.1083 19.6073 11.157 19.654L13.344 21.854C13.4404 21.9484 13.57 22.0013 13.705 22.0013C13.84 22.0013 13.9696 21.9484 14.066 21.854L21.366 14.554L23.553 12.367C23.6474 12.2706 23.7003 12.141 23.7003 12.006C23.7003 11.871 23.6474 11.7414 23.553 11.645L21.366 9.458L14.093 2.158C13.9966 2.06357 13.867 2.01069 13.732 2.01069C13.597 2.01069 13.4674 2.06357 13.371 2.158L11.153 4.358C11.1043 4.40467 11.0655 4.46071 11.0391 4.52275C11.0126 4.58479 10.9989 4.65154 10.9989 4.719C10.9989 4.78645 11.0126 4.85321 11.0391 4.91525C11.0655 4.97729 11.1043 5.03333 11.153 5.08L11.157 5.066Z" fill="black"/>
</svg>

<svg xmlns="http://www.w3.org/2000/svg" viewBox="0 0 24 24">
  <path d="M11.157 5.066l6.923 6.933-6.923 6.933a.499.499 0 000 .722l2.187 2.2a.516.516 0 00.722 0l7.3-7.3 2.187-2.187a.516.516 0 000-.722l-2.187-2.187-7.273-7.3a.516.516 0 00-.722 0l-2.218 2.2a.499.499 0 000 .722l.004-.014z"/>
</svg>
